blockchains/ark/logo.svg

<svg fill="none" height="250" viewBox="0 0 250 250" width="250" xmlns="http://www.w3.org/2000/svg" xmlns:xlink="http://www.w3.org/1999/xlink"><clipPath id="a"><path d="m0 0h250v250h-250z"/></clipPath><clipPath id="b"><path d="m0 0h250v250h-250z"/></clipPath><g clip-path="url(#a)"><g clip-path="url(#b)" clip-rule="evenodd" fill-rule="evenodd"><path d="m125.053.679016c-68.5396 0-124.101828 55.686584-124.101828 124.377984 0 68.693 55.562228 124.378 124.101828 124.378 68.539 0 124.102-55.685 124.102-124.378 0-68.6914-55.563-124.377984-124.102-124.377984z" fill="#ed1c24"/><path d="m125.327 8.15326c64.462 0 116.904 52.44414 116.904 116.90374 0 64.462-52.442 116.906-116.904 116.906-64.4614 0-116.90415-52.444-116.90415-116.906 0-64.4596 52.44275-116.90374 116.90415-116.90374z" fill="#fff"/><g fill="#ed1c24"><path d="m125.821 50.0997c.418.9987.706 2.0783 1.273 2.9826 27.519 43.8507 55.061 87.6867 82.6 131.5257.635 1.011 1.242 2.042 1.446 3.429-28.469-29.406-56.935-58.812-85.592-88.4137-28.6296 29.5647-57.1047 58.9687-85.5798 88.3737-.148-.093-.296-.184-.4428-.277.5236-.877 1.0286-1.766 1.5721-2.632 27.5286-43.843 55.0635-87.6837 82.5735-131.5393.668-1.0635 1.065-2.296 1.589-3.449z"/><path d="m164.486 161.016h-77.923c4.8035-4.971 9.2288-9.607 13.751-14.149.49-.491 1.538-.597 2.326-.598 15.238-.033 30.475-.036 45.712.008.864.002 1.992.196 2.546.751 4.469 4.476 8.829 9.06 13.588 13.988z"/><path d="m110.809 134.998c5.087-4.536 10.176-9.072 14.563-12.982 4.547 4.041 9.683 8.603 14.817 13.165-.16.227-.321.452-.482.677h-28.293c-.202-.286-.403-.574-.605-.86z"/></g></g></g></svg>

<svg width="250" height="250" viewBox="0 0 250 250" fill="none" xmlns="http://www.w3.org/2000/svg">
<g clip-path="url(#clip0_7_320)">
<g clip-path="url(#clip1_7_320)">
<path fill-rule="evenodd" clip-rule="evenodd" d="M125.053 0.679016C56.5134 0.679016 0.951172 56.3656 0.951172 125.057C0.951172 193.75 56.5134 249.435 125.053 249.435C193.592 249.435 249.155 193.75 249.155 125.057C249.155 56.3656 193.592 0.679016 125.053 0.679016Z" fill="#ED1C24"/>
<path fill-rule="evenodd" clip-rule="evenodd" d="M125.327 8.15326C189.789 8.15326 242.231 60.5974 242.231 125.057C242.231 189.519 189.789 241.963 125.327 241.963C60.8656 241.963 8.42285 189.519 8.42285 125.057C8.42285 60.5974 60.8656 8.15326 125.327 8.15326Z" fill="white"/>
<path fill-rule="evenodd" clip-rule="evenodd" d="M125.821 50.0997C126.239 51.0984 126.527 52.178 127.094 53.0823C154.613 96.933 182.155 140.769 209.694 184.608C210.329 185.619 210.936 186.65 211.14 188.037C182.671 158.631 154.205 129.225 125.548 99.6233C96.9184 129.188 68.4433 158.592 39.9682 187.997C39.8202 187.904 39.6722 187.813 39.5254 187.72C40.049 186.843 40.554 185.954 41.0975 185.088C68.6261 141.245 96.161 97.4043 123.671 53.5487C124.339 52.4852 124.736 51.2527 125.26 50.0997H125.821Z" fill="#ED1C24"/>
<path fill-rule="evenodd" clip-rule="evenodd" d="M164.486 161.016H86.563C91.3665 156.045 95.7918 151.409 100.314 146.867C100.804 146.376 101.852 146.27 102.64 146.269C117.878 146.236 133.115 146.233 148.352 146.277C149.216 146.279 150.344 146.473 150.898 147.028C155.367 151.504 159.727 156.088 164.486 161.016Z" fill="#ED1C24"/>
<path fill-rule="evenodd" clip-rule="evenodd" d="M110.809 134.998C115.896 130.462 120.985 125.926 125.372 122.016C129.919 126.057 135.055 130.619 140.189 135.181C140.029 135.408 139.868 135.633 139.707 135.858H111.414C111.212 135.572 111.011 135.284 110.809 134.998Z" fill="#ED1C24"/>
</g>
</g>
<defs>
<clipPath id="clip0_7_320">
<rect width="250" height="250" fill="white"/>
</clipPath>
<clipPath id="clip1_7_320">
<rect width="250" height="250" fill="white"/>
</clipPath>
</defs>
</svg>
